build/svg/cmd/sc_scaletext.svg

<?xml version="1.0" encoding="UTF-8" standalone="no"?>
<svg
   xmlns:dc="http://purl.org/dc/elements/1.1/"
   xmlns:cc="http://creativecommons.org/ns#"
   xmlns:rdf="http://www.w3.org/1999/02/22-rdf-syntax-ns#"
   xmlns:svg="http://www.w3.org/2000/svg"
   xmlns="http://www.w3.org/2000/svg"
   xmlns:sodipodi="http://sodipodi.sourceforge.net/DTD/sodipodi-0.dtd"
   xmlns:inkscape="http://www.inkscape.org/namespaces/inkscape"
   viewBox="0 0 16 16"
   version="1.1"
   id="svg6"
   sodipodi:docname="sc_scaletext.svg"
   inkscape:export-filename="/home/jupiter007/Libreoffice yaru theme fullcolor/build/cmd/sc_scaletext.png"
   inkscape:export-xdpi="96"
   inkscape:export-ydpi="96"
   inkscape:version="0.92.5 (2060ec1f9f, 2020-04-08)">
  <metadata
     id="metadata12">
    <rdf:RDF>
      <cc:Work
         rdf:about="">
        <dc:format>image/svg+xml</dc:format>
        <dc:type
           rdf:resource="http://purl.org/dc/dcmitype/StillImage" />
      </cc:Work>
    </rdf:RDF>
  </metadata>
  <defs
     id="defs10" />
  <sodipodi:namedview
     pagecolor="#ffffff"
     bordercolor="#666666"
     borderopacity="1"
     objecttolerance="10"
     gridtolerance="10"
     guidetolerance="10"
     inkscape:pageopacity="0"
     inkscape:pageshadow="2"
     inkscape:window-width="1920"
     inkscape:window-height="1011"
     id="namedview8"
     showgrid="true"
     inkscape:zoom="29.5"
     inkscape:cx="6.4546041"
     inkscape:cy="4.6739746"
     inkscape:window-x="0"
     inkscape:window-y="32"
     inkscape:window-maximized="1"
     inkscape:current-layer="svg6">
    <inkscape:grid
       type="xygrid"
       id="grid838" />
  </sodipodi:namedview>
  <path
     inkscape:connector-curvature="0"
     style="opacity:0.6;fill:#000000;fill-opacity:1;stroke:#000000;stroke-width:2;stroke-linejoin:round;stroke-miterlimit:4;stroke-dasharray:none"
     d="M 5.3827771,1.4999998 0.99996464,12.5 H 3.3573865 L 4.5468396,9.4999996 h 2.4531251 2.453125 L 10.642542,12.5 h 2.357422 L 8.6171517,1.4999998 h -1.617187 z m 1.6171876,1.4960938 1.685547,4.5039065 h -1.685547 -1.685547 z"
     id="path839" />
  <path
     inkscape:connector-curvature="0"
     style="fill:#ffffff;fill-opacity:1;stroke-width:1"
     d="M 5.3827771,1.4999998 0.99996464,12.5 H 3.3573865 L 4.5468396,9.4999996 h 2.4531251 2.453125 L 10.642542,12.5 h 2.357422 L 8.6171517,1.4999998 h -1.617187 z m 1.6171876,1.4960938 1.685547,4.5039065 h -1.685547 -1.685547 z"
     id="path4-3" />
  <path
     style="opacity:0.6;fill:#000000;fill-opacity:1;stroke:#000000;stroke-width:2;stroke-linecap:butt;stroke-linejoin:round;stroke-miterlimit:4;stroke-dasharray:none;stroke-opacity:1"
     d="M 12 1 L 9 5 L 11 5 L 11 6.5 L 11 9 L 11 10.5 L 9 10.5 L 12 14.5 L 15 10.5 L 13 10.5 L 13 9 L 13 6.5 L 13 5 L 15 5 L 12 1 z "
     id="path856" />
  <path
     style="fill:#aee3f8;fill-opacity:1;stroke:none;stroke-width:1px;stroke-linecap:butt;stroke-linejoin:miter;stroke-opacity:1"
     d="M 12 1 L 9 5 L 11 5 L 11 6.5 L 11 9 L 11 10.5 L 9 10.5 L 12 14.5 L 15 10.5 L 13 10.5 L 13 9 L 13 6.5 L 13 5 L 15 5 L 12 1 z "
     id="path834-1" />
</svg>

<svg xmlns="http://www.w3.org/2000/svg" viewBox="0 0 16 16"><path d="M5.383 1.5L1 12.5h2.357l1.19-3h4.906l1.19 3H13l-4.383-11H7zM7 2.996L8.686 7.5H5.314z" opacity=".6" stroke="#000" stroke-width="2" stroke-linejoin="round"/><path d="M5.383 1.5L1 12.5h2.357l1.19-3h4.906l1.19 3H13l-4.383-11H7zM7 2.996L8.686 7.5H5.314z" fill="#fff"/><path d="M12 1L9 5h2v5.5H9l3 4 3-4h-2V5h2l-3-4z" opacity=".6" stroke="#000" stroke-width="2" stroke-linejoin="round"/><path d="M12 1L9 5h2v5.5H9l3 4 3-4h-2V5h2l-3-4z" fill="#aee3f8"/></svg>
